apps/wow-docs/public/color/color_shadow.svg

<svg width="416" height="138" viewBox="0 0 416 138" fill="none" xmlns="http://www.w3.org/2000/svg">
<rect width="132" height="105.6" rx="12" fill="black" fill-opacity="0.1"/>
<path d="M68.3125 132.725C68.3125 132.376 68.2318 132.082 68.0703 131.842C67.9141 131.603 67.7109 131.399 67.4609 131.233C67.2109 131.071 66.9349 130.936 66.6328 130.827C66.3359 130.717 66.0495 130.618 65.7734 130.53C65.3724 130.399 64.9635 130.243 64.5469 130.061C64.1354 129.873 63.7604 129.649 63.4219 129.389C63.0781 129.123 62.7969 128.811 62.5781 128.452C62.3646 128.087 62.2578 127.66 62.2578 127.17C62.2578 126.681 62.3646 126.243 62.5781 125.858C62.7969 125.472 63.0807 125.147 63.4297 124.881C63.7786 124.616 64.1745 124.415 64.6172 124.28C65.0599 124.139 65.5052 124.069 65.9531 124.069C66.4479 124.069 66.9245 124.152 67.3828 124.319C67.8411 124.48 68.2474 124.709 68.6016 125.006C68.9557 125.303 69.2396 125.662 69.4531 126.084C69.6667 126.506 69.7786 126.978 69.7891 127.498H68.3047C68.263 127.17 68.1823 126.873 68.0625 126.608C67.9427 126.337 67.7839 126.105 67.5859 125.912C67.388 125.72 67.151 125.571 66.875 125.467C66.6042 125.358 66.2969 125.303 65.9531 125.303C65.6771 125.303 65.4062 125.342 65.1406 125.42C64.8802 125.498 64.6484 125.616 64.4453 125.772C64.237 125.928 64.0703 126.121 63.9453 126.35C63.8255 126.579 63.7656 126.845 63.7656 127.147C63.7708 127.475 63.8542 127.754 64.0156 127.983C64.1771 128.207 64.3828 128.397 64.6328 128.553C64.8776 128.709 65.1432 128.84 65.4297 128.944C65.7214 129.048 65.9948 129.139 66.25 129.217C66.6719 129.347 67.0938 129.506 67.5156 129.694C67.9375 129.876 68.3229 130.11 68.6719 130.397C69.0156 130.662 69.2917 130.988 69.5 131.373C69.7135 131.759 69.8203 132.204 69.8203 132.709C69.8203 133.22 69.7057 133.665 69.4766 134.045C69.2526 134.425 68.9609 134.741 68.6016 134.991C68.2422 135.246 67.8359 135.439 67.3828 135.569C66.9297 135.694 66.4766 135.756 66.0234 135.756C65.4818 135.756 64.9479 135.665 64.4219 135.483C63.901 135.3 63.4479 135.037 63.0625 134.694C62.7188 134.397 62.4453 134.05 62.2422 133.655C62.0443 133.254 61.9375 132.808 61.9219 132.319H63.3984C63.4453 132.673 63.5417 132.988 63.6875 133.264C63.8333 133.535 64.0208 133.764 64.25 133.952C64.4792 134.144 64.7422 134.29 65.0391 134.389C65.3411 134.483 65.6693 134.53 66.0234 134.53C66.3047 134.53 66.5807 134.496 66.8516 134.428C67.1276 134.355 67.3724 134.243 67.5859 134.092C67.7995 133.946 67.974 133.761 68.1094 133.537C68.2448 133.308 68.3125 133.037 68.3125 132.725Z" fill="#6B6B6B"/>
<rect x="142" width="132" height="105.6" rx="12" fill="black" fill-opacity="0.2"/>
<path d="M205.945 124.225L207.797 129.912L209.797 124.225H211.594V135.6H210.188V131.061L210.305 126.311L208.203 132.436H207.375L205.445 126.475L205.562 131.061V135.6H204.156V124.225H205.945Z" fill="#6B6B6B"/>
<rect x="284" width="132" height="105.6" rx="12" fill="#102B4A" fill-opacity="0.2"/>
<path d="M332.844 135.6V124.225H336.227C336.695 124.23 337.154 124.293 337.602 124.412C338.049 124.527 338.448 124.707 338.797 124.952C339.146 125.196 339.424 125.509 339.633 125.889C339.841 126.269 339.943 126.725 339.938 127.256C339.932 127.553 339.883 127.824 339.789 128.069C339.701 128.314 339.578 128.532 339.422 128.725C339.26 128.923 339.081 129.09 338.883 129.225C338.69 129.36 338.456 129.488 338.18 129.608V129.631C338.466 129.699 338.742 129.821 339.008 129.998C339.273 130.175 339.492 130.371 339.664 130.584C339.846 130.819 339.987 131.082 340.086 131.373C340.19 131.665 340.242 131.98 340.242 132.319C340.247 132.85 340.146 133.319 339.938 133.725C339.729 134.131 339.451 134.47 339.102 134.741C338.753 135.017 338.349 135.228 337.891 135.373C337.438 135.519 336.969 135.595 336.484 135.6H332.844ZM334.297 130.28V134.373H336.523C336.826 134.368 337.112 134.319 337.383 134.225C337.654 134.126 337.893 133.991 338.102 133.819C338.31 133.647 338.474 133.436 338.594 133.186C338.719 132.936 338.781 132.652 338.781 132.334C338.786 132.011 338.732 131.725 338.617 131.475C338.508 131.225 338.354 131.011 338.156 130.834C337.958 130.662 337.727 130.53 337.461 130.436C337.195 130.342 336.909 130.29 336.602 130.28H334.297ZM334.297 129.077H336.312C336.583 129.071 336.849 129.03 337.109 128.952C337.37 128.868 337.602 128.748 337.805 128.592C338.008 128.441 338.172 128.254 338.297 128.03C338.422 127.806 338.484 127.545 338.484 127.248C338.484 126.931 338.422 126.66 338.297 126.436C338.177 126.212 338.016 126.027 337.812 125.881C337.604 125.741 337.365 125.636 337.094 125.569C336.828 125.501 336.555 125.465 336.273 125.459H334.297V129.077ZM342.215 123.6H346.536V134.35H349.293V135.6H342.215V134.35H345.09V124.858H342.215V123.6ZM356.688 135.6L356.603 134.436C356.321 134.853 355.97 135.178 355.548 135.412C355.126 135.642 354.639 135.756 354.087 135.756C353.644 135.756 353.243 135.689 352.884 135.553C352.524 135.412 352.217 135.196 351.962 134.905C351.707 134.613 351.509 134.243 351.368 133.795C351.233 133.342 351.165 132.8 351.165 132.17V127.147H352.61V132.186C352.61 132.644 352.647 133.024 352.72 133.327C352.793 133.629 352.902 133.868 353.048 134.045C353.194 134.228 353.371 134.355 353.579 134.428C353.793 134.501 354.037 134.537 354.313 134.537C354.636 134.537 354.925 134.501 355.181 134.428C355.436 134.35 355.657 134.243 355.845 134.108C356.001 133.998 356.136 133.868 356.251 133.717C356.371 133.561 356.47 133.392 356.548 133.209V127.147H358.001V135.6H356.688ZM363.982 135.756C363.388 135.756 362.841 135.655 362.341 135.452C361.846 135.248 361.422 134.965 361.068 134.6C360.714 134.235 360.438 133.803 360.24 133.303C360.042 132.803 359.943 132.259 359.943 131.67V131.342C359.943 130.66 360.052 130.05 360.271 129.514C360.49 128.972 360.781 128.514 361.146 128.139C361.505 127.769 361.914 127.485 362.372 127.287C362.836 127.09 363.31 126.991 363.794 126.991C364.404 126.991 364.935 127.097 365.388 127.311C365.846 127.519 366.227 127.808 366.529 128.178C366.831 128.553 367.055 128.993 367.201 129.498C367.352 130.004 367.427 130.55 367.427 131.139V131.787H361.388V131.842C361.425 132.254 361.505 132.616 361.63 132.928C361.761 133.241 361.938 133.517 362.162 133.756C362.391 134.011 362.667 134.212 362.99 134.358C363.313 134.504 363.669 134.577 364.06 134.577C364.576 134.577 365.034 134.472 365.435 134.264C365.836 134.056 366.169 133.78 366.435 133.436L367.318 134.123C367.037 134.55 366.615 134.931 366.052 135.264C365.495 135.592 364.805 135.756 363.982 135.756ZM363.794 128.178C363.503 128.178 363.227 128.233 362.966 128.342C362.706 128.446 362.471 128.6 362.263 128.803C362.055 129.011 361.878 129.267 361.732 129.569C361.591 129.866 361.492 130.209 361.435 130.6H365.982V130.53C365.982 130.269 365.932 129.991 365.833 129.694C365.734 129.392 365.596 129.131 365.419 128.912C365.242 128.694 365.018 128.517 364.747 128.381C364.482 128.246 364.164 128.178 363.794 128.178Z" fill="#6B6B6B"/>
</svg>

<svg xmlns="http://www.w3.org/2000/svg" width="416" height="138" fill="none"><rect width="132" height="105.6" fill="#000" fill-opacity=".1" rx="12"/><path fill="#6B6B6B" d="M68.313 132.725q0-.523-.243-.883a2.1 2.1 0 0 0-.61-.609 4 4 0 0 0-.827-.406 20 20 0 0 0-.86-.297q-.601-.196-1.226-.469a5.8 5.8 0 0 1-1.125-.672 3.5 3.5 0 0 1-.844-.937q-.32-.547-.32-1.282 0-.734.32-1.312.328-.578.852-.977a3.8 3.8 0 0 1 1.187-.601 4.4 4.4 0 0 1 1.336-.211q.742 0 1.43.25.687.241 1.219.687.531.445.851 1.078.321.634.336 1.414h-1.484a3.1 3.1 0 0 0-.243-.89 2.2 2.2 0 0 0-.476-.696 2 2 0 0 0-.711-.445 2.5 2.5 0 0 0-.922-.164 3 3 0 0 0-.812.117q-.39.118-.696.352a1.8 1.8 0 0 0-.5.578q-.18.344-.18.797.01.492.25.836.243.336.618.57.367.235.797.391.437.156.82.273.633.195 1.266.477.632.273 1.156.703.516.398.828.976.32.579.32 1.336 0 .766-.343 1.336-.336.57-.875.946a4 4 0 0 1-1.22.578 5 5 0 0 1-1.359.187 4.9 4.9 0 0 1-1.601-.273 4 4 0 0 1-1.36-.789 3.5 3.5 0 0 1-.82-1.039 3.2 3.2 0 0 1-.32-1.336h1.476q.07.531.29.945.218.406.562.688.344.288.79.437.452.141.983.141.423 0 .829-.102a2.3 2.3 0 0 0 .734-.336q.32-.219.523-.555.204-.344.204-.812"/><rect width="132" height="105.6" x="142" fill="#000" fill-opacity=".2" rx="12"/><path fill="#6B6B6B" d="m205.945 124.225 1.852 5.687 2-5.687h1.797V135.6h-1.406v-4.539l.117-4.75-2.102 6.125h-.828l-1.93-5.961.117 4.586v4.539h-1.406v-11.375z"/><rect width="132" height="105.6" x="284" fill="#102B4A" fill-opacity=".2" rx="12"/><path fill="#6B6B6B" d="M332.844 135.6v-11.375h3.383q.703.008 1.375.187.671.173 1.195.54.523.366.836.937.312.57.305 1.367a2.4 2.4 0 0 1-.149.813 2.2 2.2 0 0 1-.367.656 2.6 2.6 0 0 1-.539.5 4 4 0 0 1-.703.383v.023q.429.102.828.367.398.266.656.586.273.353.422.789.156.438.156.946.008.797-.304 1.406a3 3 0 0 1-.836 1.016 3.8 3.8 0 0 1-1.211.632 4.7 4.7 0 0 1-1.407.227zm1.453-5.32v4.093h2.226q.454-.007.86-.148.406-.148.719-.406t.492-.633a1.9 1.9 0 0 0 .187-.852 1.96 1.96 0 0 0-.164-.859 1.8 1.8 0 0 0-.461-.641 2.1 2.1 0 0 0-.695-.398 2.8 2.8 0 0 0-.859-.156zm0-1.203h2.015q.407-.008.797-.125.392-.126.696-.36.304-.226.492-.562a1.6 1.6 0 0 0 .187-.782q0-.476-.187-.812a1.6 1.6 0 0 0-.485-.555 2.2 2.2 0 0 0-.718-.312 3.6 3.6 0 0 0-.821-.11h-1.976zm7.918-5.477h4.321v10.75h2.757v1.25h-7.078v-1.25h2.875v-9.492h-2.875zm14.473 12-.085-1.164a3.04 3.04 0 0 1-1.055.976q-.633.345-1.461.344-.664 0-1.203-.203a2.35 2.35 0 0 1-.922-.648q-.382-.438-.594-1.11-.203-.68-.203-1.625v-5.023h1.445v5.039q0 .687.11 1.141t.328.718q.219.274.531.383.32.11.734.109.484 0 .868-.109.382-.117.664-.32.234-.165.406-.391.18-.234.297-.508v-6.062h1.453v8.453zm7.294.156a4.3 4.3 0 0 1-1.641-.304 3.7 3.7 0 0 1-1.273-.852 3.9 3.9 0 0 1-.828-1.297 4.4 4.4 0 0 1-.297-1.633v-.328q0-1.023.328-1.828.328-.813.875-1.375.539-.555 1.226-.852a3.6 3.6 0 0 1 1.422-.296q.915 0 1.594.32.688.312 1.141.867.453.563.672 1.32a5.7 5.7 0 0 1 .226 1.641v.648h-6.039v.055q.055.618.242 1.086.196.47.532.828.343.383.828.602t1.07.219q.774 0 1.375-.313a3 3 0 0 0 1-.828l.883.687q-.421.641-1.266 1.141-.836.492-2.07.492m-.188-7.578q-.436 0-.828.164-.39.156-.703.461a2.8 2.8 0 0 0-.531.766q-.211.445-.297 1.031h4.547v-.07q0-.391-.149-.836a2.4 2.4 0 0 0-.414-.782 2 2 0 0 0-.672-.531q-.398-.203-.953-.203"/></svg>
